!!!!SEGMENT: pl-wn--mus-1097_zelenski-wladyslaw--pajeczyna-op-6.krn
!!!cenid: 18xx:3662
!!!COM: Żeleński, Władysław
!!!COM-rismID: pe41024455
!!!CDT: 1837/07/06-1921/01/23
!!!CNT: Polish
!!!OTL: Pajęczyna op. 6
!!!PDT:
!!!AGN:
!!!SMS-siglum: PL-Wn
!!!SMS-shelfmark: Mus.1097
!!!SMS-shelfwork: W
!!!SMS-variant:
!!!SMS-altvar:
!!!NIFC-rismSourceID:
!!!NIFC-islandoraID:
!!!URL-pdf-islandora:
!!!URL-scan: https://polona.pl/item/pajeczyna-dz-6,NjYzODU0Njc/0/#info:metadata @EN{Scan on Polona} @PL{Skany w portalu Polona}
!!!ONB-nifc:
!!!AIN: 1 empty 1 forte
!!!key: a
**kern	**kern	**dynam	**kern	**text	**dynam
*part2	*part2	*part2	*part1	*part1	*part1
*staff3	*staff2	*	*staff1	*staff1	*
*Iforte	*Iempty	*	*Iempty	*	*
*I"Fortepian	*	*	*I"Śpiew	*	*
*I'fp	*	*	*I'V	*	*
*ICklav	*	*	*ICvox	*	*
*clefF4	*clefG2	*	*clefG2	*	*
*k[]	*k[]	*	*k[]	*	*
*a:	*a:	*	*a:	*	*
*M2/4	*M2/4	*	*M2/4	*	*
=1	=1	=1	=1	=1	=1
!	!	!	!LO:TX:a:B:t=Andantino con moto, quasi Allegretto.	!	!
2r	(16aa\LL	pp	2r	.	.
.	16bb\	.	.	.	.
.	16aa\	.	.	.	.
.	16ccc\JJ	.	.	.	.
.	16aa\LL	.	.	.	.
.	16bb\	.	.	.	.
.	16aa\	.	.	.	.
.	16ccc\JJ	.	.	.	.
*clefG2	*	*	*	*	*
=2	=2	=2	=2	=2	=2
*2\right	*rep	*	*	*	*
2ee\ 2cc\	16aa\LL	.	2r	.	.
.	16bb\	.	.	.	.
.	16aa\	.	.	.	.
.	16ccc\JJ	.	.	.	.
.	16aa\LL	.	.	.	.
.	16bb\	.	.	.	.
.	16aa\	.	.	.	.
.	16ccc\JJ	.	.	.	.
*	*Xrep	*	*	*	*
=3	=3	=3	=3	=3	=3
*^	*	*	*	*	*
*	*	*^	*	*	*	*
*	*2\left	*	*2\right	*	*	*	*
(16cc/LL	2f#X\	(16aa/LL)	(2ee\	.	2r	.	.
16b/	.	16bb/	.	<	.	.	.
16cc/	.	16aa/	.	.	.	.	.
16a/JJ	.	16ccc/JJ	.	.	.	.	.
16cc/LL	.	16aa/LL	.	.	.	.	.
16b/	.	16bb/	.	.	.	.	.
16cc/	.	16aa/	.	.	.	.	.
16a/JJ	.	16ccc/JJ	.	.	.	.	.
=4	=4	=4	=4	=4	=4	=4	=4
16b/LL	[2e\	16ee/LL	2dd\)	.	2r	.	.
16a/	.	16ff/	.	.	.	.	.
16b/	.	16ee/	.	.	.	.	.
16g/JJ	.	16bb/JJ	.	.	.	.	.
16b/LL	.	16ee/LL	.	.	.	.	.
16a/	.	16ff/	.	.	.	.	.
16b/	.	16ee/	.	.	.	.	.
16g/JJ	.	16bb/JJ)	.	[	.	.	.
*	*	*v	*v	*	*	*	*
*v	*v	*	*	*	*	*
=5	=5	=5	=5	=5	=5
8e\])	(>16a/LL	pp	2r	.	.
.	16b/	.	.	.	.
8r	16a/	.	.	.	.
.	16cc/JJ	.	.	.	.
4r	16a/LL	.	.	.	.
.	16b/	.	.	.	.
.	16a/	.	.	.	.
.	16cc/JJ	.	.	.	.
*clefF4	*	*	*	*	*
=6	=6	=6	=6	=6	=6
2e\ 2c\	16a/LL	.	2r	.	.
.	16b/	.	.	.	.
.	16a/	.	.	.	.
.	16cc/JJ	.	.	.	.
.	16a/LL	.	.	.	.
.	16b/	.	.	.	.
.	16a/	.	.	.	.
.	16cc/JJ	.	.	.	.
!!LO:LB:g=original
=7	=7	=7	=7	=7	=7
*^	*^	*	*	*	*
(16c/LL	2F#X\	16a/LL	2e\	<	2r	.	.
16B/	.	16b/	.	.	.	.	.
16c/	.	16a/	.	.	.	.	.
16A/JJ	.	16cc/JJ	.	.	.	.	.
16c/LL	.	16a/LL	.	.	.	.	.
16B/	.	16b/	.	.	.	.	.
16c/	.	16a/	.	.	.	.	.
16A/JJ	.	16cc/JJ	.	.	.	.	.
=8	=8	=8	=8	=8	=8	=8	=8
16B/LL	2E\	16e/LL	2d\	[	2r	.	.
16A/	.	16fn/	.	>	.	.	.
16B/	.	16e/	.	.	.	.	.
16G#X/JJ	.	16b/JJ	.	.	.	.	.
16B/LL	.	16e/LL	.	.	.	.	.
16A/	.	16f/	.	.	.	.	.
16B/	.	16e/	.	.	.	.	.
16G#/JJ)	.	16b/JJ)	.	.	.	.	.
*v	*v	*	*	*	*	*	*
*	*v	*v	*	*	*	*
=9	=9	=9	=9	=9	=9
4r	2r	]	2r	.	.
(16E\LL	.	pp	.	.	.
16F\	.	.	.	.	.
16E\	.	.	.	.	.
16AA\JJ	.	.	.	.	.
=10	=10	=10	=10	=10	=10
16E\LL	2r	.	2r	.	.
16F\	.	.	.	.	.
16E\	.	.	.	.	.
16AA\JJ	.	.	.	.	.
16E\LL	.	.	.	.	.
16F\	.	.	.	.	.
16E\	.	.	.	.	.
16AA\JJ)	.	.	.	.	.
=11	=11	=11	=11	=11	=11
!	!	!	!LO:SIC:v:s=doklejony kawałek pięciolinii i poprawione dźwięki.	!	!LO:DY:a
(16E\LL	8r	.	8e/	Pa-	p
16F\	.	.	.	.	.
16E\	(16c/LL 16A/	.	8a/	-jąk	.
16AA\JJ	16a/JJ)	.	.	.	.
*rep	*	*	*	*	*
!	!	!	!LO:TX:a:i:t=semplice	!	!
16E\LL	8r	.	8a/	jes-	.
16F\	.	.	.	.	.
16E\	(16d/LL 16B/	.	8b\	-tem	.
16AA\JJ	16a/JJ)	.	.	.	.
*Xrep	*	*	*	*	*
=12	=12	=12	=12	=12	=12
*rep	*	*	*	*	*
16E\LL	8r	.	(16cc\LL	pa-	.
16F\	.	.	16dd\JJ	.	.
16E\	(16e/LL 16c/	.	4ee\)	.	.
16AA\JJ	16a/JJ)	.	.	.	.
16E\LL	8r	.	.	.	.
16F\	.	.	.	.	.
16E\	(16e/LL 16c/	.	(16dd\LL	-jąk	.
16AA\JJ	16a/JJ)	.	16cc\JJ)	.	.
*Xrep	*	*	*	*	*
=13	=13	=13	=13	=13	=13
*rep	*	*	*	*	*
16E\LL	8r	.	8b\	snu-	.
16F\	.	.	.	.	.
16E\	(16e/LL 16c/	.	8a\	-ję	.
16AA\JJ	16a/JJ)	.	.	.	.
16E\LL	8r	.	8b\	so-	.
16F\	.	.	.	.	.
16E\	(16e/LL 16c/	.	8cc\	-bie	.
16AA\JJ	16a/JJ)	.	.	.	.
*Xrep	*	*	*	*	*
!!LO:LB:g=original
=14	=14	=14	=14	=14	=14
16E\LL	8r	.	4.b\	ni-	.
16F\	.	.	.	.	.
16E\	(16d/LL 16B/	.	.	.	.
16AA\JJ	16a/JJ)	.	.	.	.
*rep	*	*	*	*	*
16E\LL	8r	.	.	.	.
16F\	.	.	.	.	.
16E\	(16d/LL 16B/	.	8e/	-ci	.
16AA\JJ)	16g#X/JJ)	.	.	.	.
*Xrep	*	*	*	*	*
=15	=15	=15	=15	=15	=15
*rep	*	*	*	*	*
(16E\LL	8r	.	8e/	Pusz-	.
16F\	.	.	.	.	.
16E\	(16c/LL 16A/	.	8a\	-czam	.
16AA\JJ	16a/JJ)	.	.	.	.
16E\LL	8r	.	8a\	je	.
16F\	.	.	.	.	.
16E\	(16d/LL 16B/	.	8b\	w po-	.
16AA\JJ	16a/JJ)	.	.	.	.
*Xrep	*	*	*	*	*
=16	=16	=16	=16	=16	=16
*rep	*	*	*	*	*
16E\LL	8r	.	(16cc\LL	-wiet-	.
16F\	.	.	16dd\JJ	.	.
16E\	(16e/LL 16c/	.	4ee\)	.	.
16AA\JJ	16a/JJ)	.	.	.	.
16E\LL	8r	.	.	.	.
16F\	.	.	.	.	.
16E\	(16e/LL 16c/	.	(16dd\LL	-rze	.
16AA\JJ)	16cc/JJ)	.	16cc\JJ)	.	.
*Xrep	*	*	*	*	*
=17	=17	=17	=17	=17	=17
(16D\LL	8r	.	8b\	Każ-	.
16E\	.	.	.	.	.
16D\	(16g/LL 16B/	.	8b\	-da	.
!LO:TX:a:t=P:problem=mixed beam	!	!	!	!	!
16DD/JJ	16dd/JJ)	.	.	.	.
16D\LL	8r	.	8a\	się	.
16E\	.	.	.	.	.
16D\	(16f#X/LL 16c/	.	8dd\	gdzieś	.
!LO:TX:a:t=P:problem=mixed beam	!	!	!	!	!
16DD/JJ	16dd/JJ)	.	.	.	.
=18	=18	=18	=18	=18	=18
!	!LO:TX:b:i:t=poco ritard	!	!LO:TX:a:i:t=poco ritard	!	!
16D\LL	8r	.	8dd\	chwy-	.
!	!	!LO:DY:a	!	!	!
16E\	.	<	.	.	.
16D\	(16g/LL 16B/	.	8g/	-ci	.
16GG\JJ	16dd/JJ)	.	.	.	.
16D\LL	8r	.	4r	.	.
16A\	.	.	.	.	.
16D\	(16a/LL 16d/	.	.	.	.
16FF\JJ	16dd/JJ)	[	.	.	.
=19	=19	=19	=19	=19	=19
16E\LL	8r	>	2r	.	.
16G#X\	.	.	.	.	.
16E\	(16e/LL 16d/	.	.	.	.
!LO:TX:a:t=P:problem=mixed beam	!LO:TX:a:t=P:problem=mixed beam	!	!	!	!
16EE/JJ)	16dd\JJ)	.	.	.	.
4r	4r	]	.	.	.
!!LO:LB:g=original
=20	=20	=20	=20	=20	=20
!	!LO:TX:b:i:t=a tempo	!LO:DY:a	!LO:TX:a:i:t=a tempo	!	!
(16E\LL	2r	pp	2r	.	.
16F\	.	.	.	.	.
16E\	.	.	.	.	.
16AA\JJ	.	.	.	.	.
16E\LL	.	.	.	.	.
16F\	.	.	.	.	.
16E\	.	.	.	.	.
16AA\JJ	.	.	.	.	.
=21	=21	=21	=21	=21	=21
*rep	*	*	*	*	*
!	!	!	!	!	!LO:DY:a
16E\LL	8r	.	8e/	Śpie-	p
16F\	.	.	.	.	.
16E\	(16c/LL 16A/	.	8a\	-wak	.
16AA\JJ	16a/JJ)	.	.	.	.
16E\LL	8r	.	8a\	jes-	.
16F\	.	.	.	.	.
16E\	(16d/LL 16B/	.	8b\	-tem	.
16AA\JJ)	16a/JJ)	.	.	.	.
*Xrep	*	*	*	*	*
=22	=22	=22	=22	=22	=22
*rep	*	*	*	*	*
(16E\LL	8r	.	(16cc\LL	śpie-	.
16F\	.	.	16dd\JJ	.	.
16E\	(16e/LL 16c/	.	4ee\)	.	.
16AA\JJ	16a/JJ)	.	.	.	.
16E\LL	8r	.	.	.	.
16F\	.	.	.	.	.
16E\	(16e/LL 16c/	.	(16dd\LL	-wak	.
16AA\JJ	16a/JJ)	.	16cc\JJ)	.	.
*Xrep	*	*	*	*	*
=23	=23	=23	=23	=23	=23
*rep	*	*	*	*	*
16E\LL	8r	.	8b\	i	.
16F\	.	.	.	.	.
16E\	(16e/LL 16c/	.	8a\	pio-	.
16AA\JJ	16a/JJ)	.	.	.	.
16E\LL	8r	.	8b\	-sen-	.
16F\	.	.	.	.	.
16E\	(16e/LL 16c/	.	8cc\	-ki	.
16AA\JJ)	16a/JJ)	.	.	.	.
*Xrep	*	*	*	*	*
=24	=24	=24	=24	=24	=24
*rep	*	*	*	*	*
(16E\LL	8r	.	4.b\	snu-	.
16F\	.	.	.	.	.
16E\	(16d/LL 16B/	.	.	.	.
16AA\JJ	16a/JJ)	.	.	.	.
16E\LL	8r	.	.	.	.
16F\	.	.	.	.	.
16E\	(16d/LL 16B/	.	8e/	-je	.
16AA\JJ	16g#X/JJ)	.	.	.	.
*Xrep	*	*	*	*	*
=25	=25	=25	=25	=25	=25
*rep	*	*	*	*	*
16E\LL	8r	.	8e/	Pusz-	.
16F\	.	.	.	.	.
16E\	(16c/LL 16A/	.	8a\	-czam	.
16AA\JJ	16a/JJ)	.	.	.	.
16E\LL	8r	.	8a\	je	.
16F\	.	.	.	.	.
16E\	(16d/LL 16B/	.	8b\	po	.
16AA\JJ)	16a/JJ)	.	.	.	.
*Xrep	*	*	*	*	*
!!LO:PB:g=original
=26	=26	=26	=26	=26	=26
(16E\LL	8r	.	(16cc\LL	świe-	.
16F\	.	.	16dd\JJ	.	.
16E\	(16e/LL 16c/	.	4ee\)	.	.
16AA\JJ	16a/JJ)	.	.	.	.
16E\LL	8r	.	.	.	.
16F\	.	.	.	.	.
!	!LO:TX:b:i:t=poco ritard	!	!LO:TX:a:i:t=poco ritard.	!	!
16E\	(16e/LL 16c/	.	(16cc\LL	-cie	.
16AA\JJ	16a/JJ)	.	16b\JJ)	.	.
=27	=27	=27	=27	=27	=27
*rep	*	*	*	*	*
16E\LL	8r	.	8a/	Każ-	.
16F\	.	.	.	.	.
16E\	(16e/LL 16c/	.	8a/	-dą	.
16AA\JJ	16a/JJ)	.	.	.	.
16E\LL	8r	.	8b\	Ktoś	.
16F\	.	.	.	.	.
!	!	!	!LO:TX:a:t=P:problem=mixed beam	!	!
16E\	(16d/LL 16B/	.	16e/LL	od-	.
16AA\JJ	16g#X/JJ)	.	16cc\JJ	.	.
*Xrep	*	*	*	*	*
=28	=28	=28	=28	=28	=28
*rep	*	*	*	*	*
16E\LL	8r	.	8b\	-czu-	.
16F\	.	.	.	.	.
16E\	(16e/LL 16c/	.	8a\	-je.	.
16AA\JJ	16a/JJ)	.	.	.	.
16E\LL	8r	.	4r	.	.
16F\	.	.	.	.	.
16E\	(16d/LL 16B/	.	.	.	.
16AA\JJ)	16g#X/JJ)	.	.	.	.
*Xrep	*	*	*	*	*
=29||	=29||	=29||	=29||	=29||	=29||
*k[f#c#g#]	*k[f#c#g#]	*	*k[f#c#g#]	*	*
*A:	*A:	*	*A:	*	*
*tremolo	*tremolo	*	*	*	*
*2\right	*	*	*	*	*
!	!	!	!LO:TX:a:t=Presto, doppio movimento.	!	!
16AA\LL	16c#\LL	pp	2r	.	.
16E\	16A\	.	.	.	.
16AA\	16c#\	.	.	.	.
16E\	16A\	.	.	.	.
16AA\	16c#\	.	.	.	.
16E\	16A\	.	.	.	.
16AA\	16c#\	.	.	.	.
16E\JJ	16A\JJ	.	.	.	.
=30	=30	=30	=30	=30	=30
*	*^	*	*	*	*
16AA\LL	[2e/	16c#\LL	.	2r	.	.
16E\	.	16A\	.	.	.	.
16AA\	.	16c#\	.	.	.	.
16E\	.	16A\	.	.	.	.
16AA\	.	16c#\	.	.	.	.
16E\	.	16A\	.	.	.	.
16AA\	.	16c#\	.	.	.	.
16E\JJ	.	16A\JJ	.	.	.	.
*	*	*Xtremolo	*	*	*	*
=31	=31	=31	=31	=31	=31	=31
*rep	*	*	*	*	*	*
!	!	!	!	!	!	!LO:DY:a
16AA\LL	8e/L]	8c#\	.	4.e/	Nit-	p
16E\	.	.	.	.	.	.
16AA\	8f#'/	4.ryy	.	.	.	.
16E\	.	.	.	.	.	.
16AA\	8e'/	.	.	.	.	.
16E\	.	.	.	.	.	.
!	!	!	!	!LO:TX:a:i:t=leggiero	!	!
16AA\	8d'/J	.	.	8e/	-ka	.
16E\JJ	.	.	.	.	.	.
*Xrep	*	*	*	*	*	*
*	*v	*v	*	*	*	*
=32	=32	=32	=32	=32	=32
*rep	*	*	*	*	*
16AA\LL	8c#'/L	.	4a/	jed-	.
16E\	.	.	.	.	.
16AA\	8B'/	.	.	.	.
16E\	.	.	.	.	.
16AA\	8c#'/	.	4f#/	-na	.
16E\	.	.	.	.	.
16AA\	8d'/J	.	.	.	.
16E\JJ	.	.	.	.	.
*Xrep	*	*	*	*	*
!!LO:LB:g=original
=33	=33	=33	=33	=33	=33
16AA/LL	8e'/L	.	4.e/	nit-	.
16E/	.	.	.	.	.
16AA/	8f#'/	.	.	.	.
16E/	.	.	.	.	.
16AA/	8e'/	.	.	.	.
16E\	.	.	.	.	.
16AA/	8d'/J	.	8e/	-ka	.
16E\JJ	.	.	.	.	.
=34	=34	=34	=34	=34	=34
*rep	*	*	*	*	*
16AA/LL	8c#'/L	.	4a/	dru-	.
16E/	.	.	.	.	.
16AA/	8d'/	.	.	.	.
16E/	.	.	.	.	.
16AA/	8c#'/	.	4e/	-ga	.
16E/	.	.	.	.	.
16AA/	8B'/J	.	.	.	.
16E/JJ	.	.	.	.	.
*Xrep	*	*	*	*	*
=35	=35	=35	=35	=35	=35
*rep	*	*	*	*	*
!	!	!LO:DY:a	!	!	!
16AA/LL	8A/L	<	4f#/	w po-	.
16E/	.	.	.	.	.
16AA/	8G#/	.	.	.	.
16E/	.	.	.	.	.
!	!	!	!	!	!LO:DY:a
16AA/	8A/	.	4g#/	-przek	<
16E/	.	.	.	.	.
16AA/	8B/J	.	.	.	.
16E/JJ	.	.	.	.	.
*Xrep	*	*	*	*	*
=36	=36	=36	=36	=36	=36
*rep	*	*	*	*	*
16AA/LL	8c#/L	.	4a/	wzdłuż	.
16E/	.	.	.	.	.
16AA/	8B/	.	.	.	.
16E/	.	.	.	.	.
16AA/	8c#/	.	4b\	prze-	.
16E/	.	.	.	.	.
16AA/	8d/J	.	.	.	.
16E/JJ	.	.	.	.	.
*Xrep	*	*	*	*	*
=37	=37	=37	=37	=37	=37
*rep	*	*	*	*	*
16AA/LL	8e/L	.	8cc#\L	-le-	.
16E/	.	.	.	.	.
16AA/	8d/	.	8dd\J	.	.
16E/	.	.	.	.	.
16AA/	8c#/	.	[4ee\	-ci	.
16E/	.	.	.	.	.
16AA/	8d/J	.	.	.	.
16E/JJ	.	.	.	.	.
*Xrep	*	*	*	*	*
=38	=38	=38	=38	=38	=38
*rep	*	*	*	*	*
16AA/LL	8e/L	.	8ee\]	.	[
16E/	.	.	.	.	.
16AA/	8a/	.	8r	.	.
16E/	.	.	.	.	.
16AA/	8cc#/	.	4r	.	.
16E/	.	.	.	.	.
16AA/	8dd/J	.	.	.	.
16E/JJ	.	[[	.	.	.
*Xrep	*	*	*	*	*
*Xtremolo	*	*	*	*	*
=39	=39	=39	=39	=39	=39
*	*^	*	*	*	*
!	!	!	!	!	!	!LO:DY:a
8r	(4ee/	[2e\	sfz >	4ee\	Tak	sfz
8AA'/L	.	.	.	.	.	.
!LO:TX:b:i:t=legg.	!	!	!	!	!	!LO:DY:a
8BB'/	8dd/L	.	.	8dd\L	so-	p
8C#'/J	8cc#/J	.	.	8cc#\J	.	.
=40	=40	=40	=40	=40	=40	=40
8D'\L	4b/	2e\_	]	4b\	-bie	.
8E'\	.	.	.	.	.	.
8F#'\	4e/)	.	.	4e/	po-	.
8G#'\J	.	.	.	.	.	.
!!LO:LB:g=original
=41	=41	=41	=41	=41	=41	=41
8A'\L	(4a/	2e\]	.	(4a\	-wo-	.
!	!	!	!LO:DY:a	!	!	!
8c#'\	.	.	<	.	.	.
8B'\	4cc#/	.	.	4cc#\)	.	.
8A'\J	.	.	.	.	.	.
*	*v	*v	*	*	*	*
=42	=42	=42	=42	=42	=42
8G#'\L	4b/ 4e/)	.	4b\	-li	.
8F#'\	.	[	.	.	.
8E'\	(>4e/	.	4r	.	.
8D'\J	.	.	.	.	.
=43	=43	=43	=43	=43	=43
*	*^	*	*	*	*
8C#'\L	4ee/	[2e\	.	4ee\	Za-	.
8AA'\	.	.	.	.	.	.
8BB'\	8dd#X/L	.	.	8dd#X\L	-snu-	.
8C#'\J	8cc#/J	.	.	8cc#\J	.	.
=44	=44	=44	=44	=44	=44	=44
8D#X'\L	4b/)	2e\_	.	4b\	-wy-	.
8E'\	.	.	.	.	.	.
8F#'\	(4e/	.	.	4e/	-wam	.
8G#'\J	.	.	.	.	.	.
=45	=45	=45	=45	=45	=45	=45
!	!	!	!LO:DY:a	!	!	!LO:DY:a
8A\L	4f#/	4e\]	>	((>4f#/	sie-	>
8c#\	.	.	.	.	.	.
8B\	4g#/	4d#X\	.	4g#/)	.	.
8A\J	.	.	.	.	.	.
*	*v	*v	*	*	*	*
=46	=46	=46	=46	=46	=46
8G#\L	4e/)	.	4e/)	-ci	]
8F#\	.	]	.	.	.
8E\	4r	.	4r	.	.
!LO:TX:a:t=P:problem=mixed beam	!	!	!	!	!
8AA/J	.	.	.	.	.
=47	=47	=47	=47	=47	=47
*tremolo	*	*	*	*	*
!LO:TX:a:t=P:problem=mixed beam	!	!LO:DY:a	!	!	!
16AA/LL	(16c#\LL	pp	2r	.	.
16E\	16A\	.	.	.	.
16AA/	16c#\	.	.	.	.
16E\	16A\JJ	.	.	.	.
16AA/	16c#\LL	.	.	.	.
16E\	16A\	.	.	.	.
16AA/	16c#\	.	.	.	.
16E\JJ	16A\JJ	.	.	.	.
=48	=48	=48	=48	=48	=48
*	*^	*	*	*	*
!LO:TX:a:t=P:problem=mixed beam	!	!	!	!	!	!
16AA/LL	[2e/	16c#\LL	.	2r	.	.
16E\	.	16A\	.	.	.	.
16AA/	.	16c#\	.	.	.	.
16E\	.	16A\JJ	.	.	.	.
16AA/	.	16c#\LL	.	.	.	.
16E\	.	16A\	.	.	.	.
16AA/	.	16c#\	.	.	.	.
16E\JJ	.	16A\JJ	.	.	.	.
!!LO:LB:g=original
=49	=49	=49	=49	=49	=49	=49
!LO:TX:a:t=P:problem=mixed beam	!	!	!	!	!	!LO:DY:a
16AA/LL	8e'/L]	8c#\)	.	4.e/	Piosn-	p
16E\	.	.	.	.	.	.
!	!LO:TX:b:i:t=legg.	!	!	!LO:TX:a:i:t=legg.	!	!
16AA/	8f#'/	4.ryy	.	.	.	.
16E\	.	.	.	.	.	.
16AA/	8e'/	.	.	.	.	.
16E\	.	.	.	.	.	.
16AA/	8d'/J	.	.	8e/	-ka	.
16E\JJ	.	.	.	.	.	.
*	*v	*v	*	*	*	*
=50	=50	=50	=50	=50	=50
*rep	*	*	*	*	*
!LO:TX:a:t=P:problem=mixed beam	!	!	!	!	!
16AA/LL	8c#'/L	.	4a/	jed-	.
16E\	.	.	.	.	.
16AA/	8B'/	.	.	.	.
16E\	.	.	.	.	.
16AA/	8c#'/	.	4f#/	-na,	.
16E\	.	.	.	.	.
16AA/	8d'/J	.	.	.	.
16E\JJ	.	.	.	.	.
*Xrep	*	*	*	*	*
=51	=51	=51	=51	=51	=51
*rep	*	*	*	*	*
!LO:TX:a:t=P:problem=mixed beam	!	!	!	!	!
16AA/LL	8e'/L	.	4.e/	piosn-	.
16E\	.	.	.	.	.
16AA/	8f#'/	.	.	.	.
16E\	.	.	.	.	.
16AA/	8e'/	.	.	.	.
16E\	.	.	.	.	.
16AA/	8d'/J	.	8e/	-ka	.
16E\JJ	.	.	.	.	.
*Xrep	*	*	*	*	*
=52	=52	=52	=52	=52	=52
*rep	*	*	*	*	*
!LO:TX:a:t=P:problem=mixed beam	!	!	!	!	!
16AA/LL	8c#'/L	.	4a/	dru-	.
16E\	.	.	.	.	.
16AA/	8d'/	.	.	.	.
16E\	.	.	.	.	.
!	!	!	!	!	!LO:HP:t=crescendo
16AA/	8c#'/	.	4e/	-ga,	<
16E\	.	.	.	.	.
16AA/	8B'/J	.	.	.	.
16E\JJ	.	.	.	.	.
*Xrep	*	*	*	*	*
=53	=53	=53	=53	=53	=53
*rep	*	*	*	*	*
!LO:TX:a:t=P:problem=mixed beam	!	!LO:DY:a	!	!	!
16AA/LL	8A'/L	<	4f#/	z wsi	.
16E\	.	.	.	.	.
16AA/	8G#'/	.	.	.	.
16E\	.	.	.	.	.
16AA/	8A'/	.	4g#/	do	.
16E\	.	.	.	.	.
16AA/	8B'/J	.	.	.	.
16E\JJ	.	.	.	.	.
*Xrep	*	*	*	*	*
=54	=54	=54	=54	=54	=54
*rep	*	*	*	*	*
!LO:TX:a:t=P:problem=mixed beam	!	!	!	!	!
16AA/LL	8c#'/L	.	4a/	wsi	.
16E\	.	.	.	.	.
16AA/	8B'/	.	.	.	.
16E\	.	.	.	.	.
16AA/	8c#'/	.	4b\	przes-	.
16E\	.	.	.	.	.
16AA/	8d'/J	.	.	.	.
16E\JJ	.	.	.	.	.
*Xrep	*	*	*	*	*
=55	=55	=55	=55	=55	=55
*rep	*	*	*	*	*
!LO:TX:a:t=P:problem=mixed beam	!	!	!	!	!
16AA/LL	8e'/L	.	8cc#\L	-ko-	.
16E\	.	.	.	.	.
16AA/	8d'/	.	8dd\J	.	.
16E\	.	.	.	.	.
16AA/	8c#'/	.	[4ee\	-czy	.
16E\	.	.	.	.	.
16AA/	8d'/J	.	.	.	.
16E\JJ	.	.	.	.	.
*Xrep	*	*	*	*	*
=56	=56	=56	=56	=56	=56
*rep	*	*	*	*	*
!LO:TX:a:t=P:problem=mixed beam	!	!	!	!	!
16AA/LL	8e'/L	.	8ee\]	.	.
16E\	.	.	.	.	.
16AA/	8a'/	.	8r	.	.
16E\	.	.	.	.	.
16AA/	8cc#'/	.	4r	.	.
16E\	.	.	.	.	.
16AA/	8ee'/J	.	.	.	.
16E\JJ	.	[[	.	.	.
*Xrep	*	*	*	*	*
*Xtremolo	*	*	*	*	*
!!LO:PB:g=original
=57	=57	=57	=57	=57	=57
*	*^	*	*	*	*
!	!	!	!	!	!	!LO:DY:a
8r	(4ffn/	[2f#\	sfz	4ffn\	Roz-	sfz
8FFn'/L	.	.	.	.	.	.
!	!	!	!	!	!	!LO:DY:a
8AA'/	8ee/L	.	>	8ee\L	-wią-	p
8Cn'/J	8dd/J	.	.	8dd\J	.	.
=58	=58	=58	=58	=58	=58	=58
8Fn'\L	4ccn/)	2f#\]	]	4ccn\	-zu-	.
8Gn'\	.	.	.	.	.	.
8A'\	(4fn/	.	p	4fn/	-je	.
8d'\J	.	.	.	.	.	.
=59	=59	=59	=59	=59	=59	=59
!	!	!	!	!	!	!LO:DY:a
8cn'\L	4gn/	4f#\	.	(4gn/	ser-	<
!	!	!	!LO:DY:a	!	!	!
8B-X'\	.	.	<	.	.	.
8A'\	4b-X/	4e\	.	4b-X\)	.	.
8Gn'\J	.	.	.	.	.	.
=60	=60	=60	=60	=60	=60	=60
8Fn'\L	4a/	4fn\)	.	4a/	-ca	[
8E'\	.	.	.	.	.	.
8D'\	(4ccn/	4e\	.	4r	.	.
8Cn'\J	.	.	[	.	.	.
=61	=61	=61	=61	=61	=61	=61
!	!	!	!	!	!	!LO:DY:a
!	!	!	!	!	!	!LO:DY:a
8BB-X'/L	4dd/	4d\	sfz	4ffn\	po-	> f
!	!	!	!LO:DY:a	!	!	!
8Cn'/	.	.	>	.	.	.
8D'/	4bn/	[4gn\	.	8ee\L	-roz-	.
8E'/J	.	.	.	8dd\J	.	.
=62	=62	=62	=62	=62	=62	=62
8Fn'\L	(2a/	4g\]	.	4ccn\	-wid-	]
8Gn'\	.	.	]	.	.	.
!	!	!	!	!	!	!LO:DY:a
8A'\	.	[4f#\	p	4fn/	-nia	p
8B-X'\J	.	.	.	.	.	.
=63	=63	=63	=63	=63	=63	=63
!	!LO:TX:b:i:t=riten	!	!	!LO:TX:a:i:t=riten	!	!
8A'\L	4ccn/)	2a\ 2f#\]	.	(4ccn\	o-	.
8Fn'\	.	.	.	.	.	.
8E'\	4dd/)	.	.	4dd\)	.	.
8D'\J	.	.	.	.	.	.
*	*v	*v	*	*	*	*
=64	=64	=64	=64	=64	=64
2C#X;\	2ee/ 2a/ 2e;/	.	2ee;\	-czy.	.
*clefG2	*	*	*	*	*
!!LO:LB:g=original
=65	=65	=65	=65	=65	=65
!	!	!	!LO:TX:a:i:t=a tempo animato	!	!
(4f#/	8r	.	4a/	Roz-	.
!	!LO:TX:b:i:t=a tempo	!	!	!	!
.	8a/	.	.	.	.
!	!	!LO:DY:a	!	!	!LO:HP:b
4fn/	8r	<	4dd\	-wią-	<
.	8dd\ 8a\	.	.	.	.
=66	=66	=66	=66	=66	=66
4e/	8r	.	4cc#\	-zu-	.
.	8cc#\ 8a\	.	.	.	.
4d/)	8r	[[	4b\	-je	[
.	8b/ 8a/	.	.	.	.
*clefF4	*	*	*	*	*
=67	=67	=67	=67	=67	=67
*^	*	*	*	*	*
!	!	!	!	!LO:SIC:v:s=skreślony takst	!	!
(4c#/	2E\	8r	.	2ee\	ser-	.
.	.	8g#/ 8e/	.	.	.	.
4B/	.	8r	.	.	.	.
.	.	8g#/ 8d/	.	.	.	.
=68	=68	=68	=68	=68	=68	=68
!	!	!	!LO:HP:t=crescendo	!	!	!
4A/)	2A\	8r	<	4a/	-ca	.
.	.	8a/ 8c#/	.	.	.	.
4G#/	.	8r	.	4r	.	.
.	.	8a/ 8c#/	.	.	.	.
=69	=69	=69	=69	=69	=69	=69
[2A/	(4F#\	8r	.	4a/	po-	.
!	!	!LO:TX:a:i:t=cresc.	!	!	!	!
.	.	8a/	.	.	.	.
.	4Fn\	8r	.	4dd\	-roz-	.
.	.	8dd\ 8a\	.	.	.	.
=70	=70	=70	=70	=70	=70	=70
4A/]	4E\	8r	.	4cc#\	-wid-	.
.	.	8cc#\ 8a\	.	.	.	.
4d/	4D\)	8r	.	4ff#\	-nia	.
.	.	8ff#\ 8a\	.	.	.	.
=71	=71	=71	=71	=71	=71	=71
*	*2\left	*	*	*2\right	*	*
!	!	!	!	!	!	!LO:DY:b
(4c#/	[2E\	8r	f	[2ee\	o-	f
.	.	8ee\ 8a\	.	.	.	.
4f#/	.	8r	.	.	.	.
.	.	8a/	.	.	.	.
=72	=72	=72	=72	=72	=72	=72
4e/	2E\]	8r	.	2ee\]	.	.
.	.	8b/ 8a/	.	.	.	.
4d/	.	8r	.	.	.	.
.	.	8b/ 8g#/	.	.	.	.
*v	*v	*	*	*	*	*
!!LO:LB:g=original
=73||	=73||	=73||	=73||	=73||	=73||
*k[]	*k[]	*	*k[]	*	*
*C:	*C:	*	*C:	*	*
*^	*^	*	*	*	*
!	!	!	!	!	!LO:TX:a:i:t=Tempo I	!	!
8e\ 8c#X\ 8A\ 8F#X\)	4ryy	(16aa\LL	4ryy	.	4a/	-czy.	.
.	.	16bb\	.	.	.	.	.
8rc	.	16aa\	.	.	.	.	.
.	.	16ccc\JJ	.	.	.	.	.
*clefG2	*	*	*	*	*	*	*
16cc#X/LL	(4f#X\	16aa/LL	(4ee\	pp	4r	.	.
16b/	.	16bb/	.	<	.	.	.
16cc#/	.	16aa/	.	.	.	.	.
16a/JJ	.	16ccc/JJ	.	.	.	.	.
=74	=74	=74	=74	=74	=74	=74	=74
16b/LL	[2e\)	16ee/LL	2dd\)	.	2r	.	.
16a/	.	16ffn/	.	[ >	.	.	.
16b/	.	16ee/	.	.	.	.	.
16g#X/JJ	.	16bb/JJ	.	.	.	.	.
16b/LL	.	16ee/LL	.	.	.	.	.
16a/	.	16ff/	.	.	.	.	.
16b/	.	16ee/	.	.	.	.	.
16g#/JJ	.	16bb/JJ)	.	.	.	.	.
=75	=75	=75	=75	=75	=75	=75	=75
4ryy	8e\]	(16a/LL	4rc	]	2r	.	.
.	.	16b/	.	.	.	.	.
.	8rc	16a/	.	.	.	.	.
.	.	16cc/JJ	.	.	.	.	.
*clefF4	*	*	*	*	*	*	*
(16c/LL	(4F#X\	16a/LL	(4e\	<	.	.	.
16B/	.	16b/	.	.	.	.	.
16c/	.	16a/	.	.	.	.	.
16A/JJ	.	16cc/JJ	.	.	.	.	.
=76	=76	=76	=76	=76	=76	=76	=76
*	*	*	*2\left	*	*	*	*
16B/LL	2E\)	16e/LL	2d\)	.	2r	.	.
16A/	.	16fn/	.	.	.	.	.
16B/	.	16e/	.	[	.	.	.
16G#X/JJ	.	16b/JJ	.	.	.	.	.
16B/LL	.	16e/LL	.	>	.	.	.
16A/	.	16f/	.	.	.	.	.
16B/	.	16e/	.	.	.	.	.
16G#/JJ)	.	16b/JJ)	.	]	.	.	.
*v	*v	*	*	*	*	*	*
*	*v	*v	*	*	*	*
=77	=77	=77	=77	=77	=77
4r	2r	.	2r	.	.
(16E\LL	.	pp	.	.	.
16F\	.	.	.	.	.
16E\	.	.	.	.	.
16AA\JJ	.	.	.	.	.
=78	=78	=78	=78	=78	=78
!	!	!	!LO:SIC:v:s=doklejona pięciolinia	!	!
16E\LL	2r	.	2r	.	.
16F\	.	.	.	.	.
16E\	.	.	.	.	.
16AA\JJ	.	.	.	.	.
16E\LL	.	.	.	.	.
16F\	.	.	.	.	.
16E\	.	.	.	.	.
16AA\JJ	.	.	.	.	.
!!LO:LB:g=original
=79	=79	=79	=79	=79	=79
!	!	!	!	!	!LO:DY:a
16E\LL	8r	.	8e/	Jak	p
16F\	.	.	.	.	.
!	!	!	!LO:TX:a:i:t=semplice	!	!
16E\	(16c/LL 16A/	.	8a\	z ty-	.
16AA\JJ	16a/JJ)	.	.	.	.
*rep	*	*	*	*	*
16E\LL	8r	.	8a\	-sią-	.
16F\	.	.	.	.	.
16E\	(16d/LL 16B/	.	8b\	-ca	.
16AA\JJ	16a/JJ)	.	.	.	.
*Xrep	*	*	*	*	*
=80	=80	=80	=80	=80	=80
*rep	*	*	*	*	*
16E\LL	8r	.	(16cc\LL	ni-	.
16F\	.	.	16dd\JJ	.	.
16E\	(16e/LL 16c/	.	4ee\)	.	.
16AA\JJ	16a/JJ)	.	.	.	.
16E\LL	8r	.	.	.	.
16F\	.	.	.	.	.
16E\	(16e/LL 16c/	.	(16dd\LL	-tek	.
16AA\JJ)	16a/JJ)	.	16cc\JJ)	.	.
*Xrep	*	*	*	*	*
=81	=81	=81	=81	=81	=81
*rep	*	*	*	*	*
16E\LL	8r	.	8b\	tak	.
16F\	.	.	.	.	.
16E\	(16e/LL 16c/	.	8a/	z ty-	.
16AA\JJ	16a/JJ)	.	.	.	.
16E\LL	8r	.	8b\	-sią-	.
16F\	.	.	.	.	.
16E\	(16e/LL 16c/	.	8cc\	-ca	.
16AA\JJ	16a/JJ)	.	.	.	.
*Xrep	*	*	*	*	*
=82	=82	=82	=82	=82	=82
*rep	*	*	*	*	*
16E\LL	8r	.	4.b\	pie-	.
16F\	.	.	.	.	.
16E\	(16d/LL 16B/	.	.	.	.
16AA\JJ	16a/JJ)	.	.	.	.
16E\LL	8r	.	.	.	.
16F\	.	.	.	.	.
16E\	(16d/LL 16B/	.	8e/	-śni	.
16AA\JJ	16g#X/JJ)	.	.	.	.
*Xrep	*	*	*	*	*
=83	=83	=83	=83	=83	=83
*rep	*	*	*	*	*
16E\LL	8r	.	8e/	Co-	.
16F\	.	.	.	.	.
16E\	(16c/LL 16A/	.	8a/	-raz	.
16AA\JJ	16a/JJ)	.	.	.	.
16E\LL	8r	.	8a/	lep-	.
16F\	.	.	.	.	.
16E\	(16d/LL 16B/	.	8b\	-sza	.
16AA\JJ	16a/JJ)	.	.	.	.
*Xrep	*	*	*	*	*
=84	=84	=84	=84	=84	=84
*rep	*	*	*	*	*
(16E\LL	8r	.	(16cc\LL	siat-	.
16F\	.	.	16dd\JJ	.	.
16E\	(16e/LL 16c/	.	4ee\)	.	.
16AA\JJ	16a/JJ)	.	.	.	.
16E\LL	8r	.	.	.	.
16F\	.	.	.	.	.
16E\	(16e/LL 16c/	.	16dd\LL	-ka	.
16AA\JJ	16cc/JJ)	.	16cc\JJ	.	.
*Xrep	*	*	*	*	*
!!LO:LB:g=original
=85	=85	=85	=85	=85	=85
!LO:TX:a:t=P:problem=mixed beam	!LO:TX:b:i:t=poco riten	!	!	!	!
16D\LL	8r	.	8b\	za-	.
16E\	.	.	.	.	.
!	!	!	!LO:TX:a:i:t=poco ritard	!	!
16D\	(16g/LL 16B/	.	8b\	-wę-	.
16DD/JJ	16dd/JJ)	.	.	.	.
!LO:TX:a:t=P:problem=mixed beam	!	!	!	!	!
16D\LL	8r	.	8a\	-źli	.
16E\	.	.	.	.	.
16D\	(16f#X/LL 16c/	.	8dd\	się	.
16DD/JJ	16dd/JJ)	.	.	.	.
=86	=86	=86	=86	=86	=86
!LO:TX:a:t=P:problem=mixed beam	!	!	!	!	!
16D\LL	8r	<	8dd\	cie-	.
16E\	.	.	.	.	.
16D\	(16g/LL 16B/	.	8g/	-śniej	.
16GG/JJ	16dd/JJ)	.	.	.	.
16D\LL	8r	.	4r	.	.
16A\	.	.	.	.	.
16D\	(16a/LL 16d/	.	.	.	.
16FFn\JJ	16dd/JJ)	[	.	.	.
=87	=87	=87	=87	=87	=87
!LO:TX:a:t=P:problem=mixed beam	!	!	!	!	!
16E\LL	8r	>	2r	.	.
16G#X\	.	.	.	.	.
16E\	(16e/LL 16d/	.	.	.	.
16EE/JJ)	16dd\JJ)	]	.	.	.
4r	4r	.	.	.	.
=88	=88	=88	=88	=88	=88
(16E\LL	2r	.	4r	.	.
16F\	.	.	.	.	.
16E\	.	.	.	.	.
16AA\JJ	.	.	.	.	.
16E\LL	.	.	8r	.	.
16F\	.	.	.	.	.
16E\	.	.	8e/	a	.
16AA\JJ	.	.	.	.	.
=89	=89	=89	=89	=89	=89
*rep	*	*	*	*	*
16E\LL	8r	.	8e/L	pa-	.
16F\	.	.	.	.	.
16E\	(16c/LL 16A/	.	8a/J	.	.
16AA\JJ	16a/JJ)	.	.	.	.
16E\LL	8r	.	8a\	-jąk	.
16F\	.	.	.	.	.
16E\	(16d/LL 16B/	.	8b\	bez-	.
16AA\JJ	16a/JJ)	.	.	.	.
*Xrep	*	*	*	*	*
=90	=90	=90	=90	=90	=90
*rep	*	*	*	*	*
16E\LL	8r	.	16cc\LL	-pie-	.
16F\	.	.	16dd\JJ	.	.
16E\	(16e/LL 16c/	.	4ee\	.	.
16AA\JJ	16a/JJ)	.	.	.	.
16E\LL	8r	.	.	.	.
16F\	.	.	.	.	.
16E\	(16e/LL 16c/	.	16dd\LL	-czen	.
16AA\JJ)	16a/JJ)	.	16cc\JJ	.	.
*Xrep	*	*	*	*	*
!!LO:LB:g=original
=91	=91	=91	=91	=91	=91
(16E\LL	8r	.	8b\L	pod	.
16F\	.	.	.	.	.
16E\	(16e/LL 16c/	.	8a\J	siat-	.
16AA\JJ	16a/JJ)	.	.	.	.
*rep	*	*	*	*	*
16E\LL	8r	.	8b\	-ką	.
16F\	.	.	.	.	.
16E\	(16e/LL 16c/	.	8cc\	swych	.
16AA\JJ	16a/JJ)	.	.	.	.
*Xrep	*	*	*	*	*
=92	=92	=92	=92	=92	=92
*rep	*	*	*	*	*
16E\LL	8r	.	4b\	ni-	.
16F\	.	.	.	.	.
16E\	(16d/LL 16B/	.	.	.	.
16AA\JJ	16a/JJ)	.	.	.	.
16E\LL	8r	.	8e/	-ci	.
16F\	.	.	.	.	.
16E\	(16d/LL 16B/	.	8e/	I	.
16AA\JJ	16g#X/JJ)	.	.	.	.
*Xrep	*	*	*	*	*
=93	=93	=93	=93	=93	=93
*rep	*	*	*	*	*
16E\LL	8r	.	8e/L	z wi-	.
16F\	.	.	.	.	.
16E\	(16c/LL 16A/	.	8a/J	.	.
16AA\JJ	16a/JJ)	.	.	.	.
16E\LL	8r	.	8a/	-chrów	.
16F\	.	.	.	.	.
16E\	(16d/LL 16B/	.	8b\	żar-	.
16AA\JJ)	16a/JJ)	.	.	.	.
*Xrep	*	*	*	*	*
=94	=94	=94	=94	=94	=94
*rep	*	*	*	*	*
(16E\LL	8r	.	16cc\LL	-tu-	.
!	!	!	!LO:TX:a:i:t=un poco ritard	!	!
16F\	.	.	16dd\JJ	.	.
!	!LO:TX:b:i:t=un poco rallent.	!	!	!	!
16E\	(16e/LL 16c/	.	4ee\	-je	.
16AA\JJ	16a/JJ)	.	.	.	.
16E\LL	8r	.	.	.	.
16F\	.	.	.	.	.
16E\	(16e/LL 16c/	.	16cc\LL	I	.
16AA\JJ	16a/JJ)	.	16b\JJ	.	.
*Xrep	*	*	*	*	*
=95	=95	=95	=95	=95	=95
*rep	*	*	*	*	*
16E\LL	8r	.	4a/	musz-	.
16F\	.	.	.	.	.
16E\	(16e/LL 16c/	.	.	.	.
16AA\JJ	16a/JJ)	.	.	.	.
16E\LL	8r	.	8b\	-kę	.
16F\	.	.	.	.	.
!	!	!	!LO:TX:a:t=P:problem=mixed beam	!	!
16E\	(16d/LL 16B/	.	16e/LL	po-	.
16AA\JJ	16g#X/JJ)	.	16cc\JJ	.	.
*Xrep	*	*	*	*	*
=96	=96	=96	=96	=96	=96
*rep	*	*	*	*	*
16E\LL	8r	.	8b\	-chwy-	.
16F\	.	.	.	.	.
16E\	(16e/LL 16c/	.	8a/	-ci	.
16AA\JJ	16a/JJ)	.	.	.	.
16E\LL	8r	.	4r	.	.
16F\	.	.	.	.	.
16E\	(16d/LL 16B/	.	.	.	.
16AA\JJ)	16g#X/JJ)	.	.	.	.
*Xrep	*	*	*	*	*
!!LO:LB:g=original
=97||	=97||	=97||	=97||	=97||	=97||
*k[f#c#g#]	*k[f#c#g#]	*	*k[f#c#g#]	*	*
*A:	*A:	*	*A:	*	*
*	*^	*	*	*	*
*2\right	*	*2\right	*	*	*	*
*tremolo	*	*tremolo	*	*	*	*
!	!	!	!	!LO:TX:a:i:t=\nPresto, doppio movimento	!	!
16AA\LL	2ryy	16c#\LL	pp	2r	.	.
16E\	.	16A\	.	.	.	.
16AA\	.	16c#\	.	.	.	.
16E\	.	16A\	.	.	.	.
16AA\	.	16c#\	.	.	.	.
16E\	.	16A\	.	.	.	.
16AA\	.	16c#\	.	.	.	.
16E\JJ	.	16A\JJ	.	.	.	.
=98	=98	=98	=98	=98	=98	=98
*rep	*	*	*	*	*	*
16AA\LL	[2e/	16c#\LL	.	2r	.	.
16E\	.	16A\	.	.	.	.
16AA\	.	16c#\	.	.	.	.
16E\	.	16A\	.	.	.	.
16AA\	.	16c#\	.	.	.	.
16E\	.	16A\	.	.	.	.
16AA\	.	16c#\	.	.	.	.
16E\JJ	.	16A\JJ	.	.	.	.
*Xrep	*	*Xtremolo	*	*	*	*
=99	=99	=99	=99	=99	=99	=99
*rep	*	*	*	*	*	*
16AA\LL	8e/L]	8c#\	.	4r	.	.
16E\	.	.	.	.	.	.
!	!	!	!LO:DY:a	!	!	!
16AA\	8f#'/	4.ryy	<	.	.	.
16E\	.	.	.	.	.	.
16AA\	8e'/	.	.	8r	.	.
16E\	.	.	.	.	.	.
!	!	!	!	!	!	!LO:DY:a
16AA\	8d'/J	.	.	8e/	Pod	p
16E\JJ	.	.	.	.	.	.
*Xrep	*	*	*	*	*	*
*	*v	*v	*	*	*	*
=100	=100	=100	=100	=100	=100
*rep	*	*	*	*	*
!	!	!	!LO:TX:a:i:t=leggiero	!	!
16AA\LL	8c#'/L	.	(>4a/	siat-	.
16E\	.	.	.	.	.
16AA\	8B'/	.	.	.	.
16E\	.	.	.	.	.
16AA\	8c#'/	.	4f#/)	.	.
16E\	.	.	.	.	.
16AA\	8d'/J	.	.	.	.
16E\JJ	.	.	.	.	.
*Xrep	*	*	*	*	*
=101	=101	=101	=101	=101	=101
*rep	*	*	*	*	*
16AA\LL	8e'/L	.	4.e/	-ką	.
16E\	.	.	.	.	.
16AA\	8f#'/	.	.	.	.
16E	.	.	.	.	.
16AA\	8e'/	.	.	.	.
16E\	.	.	.	.	.
16AA\	8d'/J	.	8e/	pio-	.
16E\JJ	.	.	.	.	.
*Xrep	*	*	*	*	*
=102	=102	=102	=102	=102	=102
*rep	*	*	*	*	*
16AA\LL	8c#'/L	.	4a/	-se-	.
16E\	.	.	.	.	.
16AA\	8d'/	[	.	.	.
16E\	.	.	.	.	.
16AA\	8c#'/	.	8e/	-nek	.
16E\	.	.	.	.	.
16AA\	8B'/J	.	8e/	pod	.
16E\JJ	.	.	.	.	.
*Xrep	*	*	*	*	*
=103	=103	=103	=103	=103	=103
*rep	*	*	*	*	*
!	!	!	!	!	!LO:DY:a
16AA\LL	8A'/L	.	(4f#/	siat-	<
16E\	.	.	.	.	.
16AA\	8G#'/	.	.	.	.
16E\	.	.	.	.	.
16AA\	8A'/	.	4g#/)	.	.
16E\	.	.	.	.	.
16AA\	8B'/J	.	.	.	.
16E\JJ	.	.	.	.	.
*Xrep	*	*	*	*	*
=104	=104	=104	=104	=104	=104
*rep	*	*	*	*	*
16AA\LL	8c#'/L	.	4a\	-ką	.
16E\	.	.	.	.	.
16AA\	8B'/	.	.	.	.
16E\	.	.	.	.	.
16AA\	8c#'/	.	4b\	pio-	.
16E\	.	.	.	.	.
16AA\	8d'/J	.	.	.	.
16E\JJ	.	.	.	.	.
*Xrep	*	*	*	*	*
!!LO:LB:g=original
=105	=105	=105	=105	=105	=105
16AA/LL	8e'/L	.	8cc#\L	-se-	.
16E/	.	.	.	.	.
!	!LO:TX:b:i:t=cresc	!	!	!	!
16AA/	8d'/	.	8dd\J	.	.
16E/	.	.	.	.	.
16AA/	8c#'/	.	[4ee\	-nek	[[
16E/	.	.	.	.	.
16AA\/	8d'/J	.	.	.	.
16E\/JJ	.	.	.	.	.
=106	=106	=106	=106	=106	=106
*rep	*	*	*	*	*
16AA/LL	8e'/L	.	8ee\]	.	.
16E/	.	.	.	.	.
16AA/	8a'/	.	8r	.	.
16E/	.	.	.	.	.
!	!	!	!	!	!LO:DY:a
16AA/	8cc#'/	.	4e/	My	f
16E/	.	.	.	.	.
16AA/	8dd'/J	.	.	.	.
16E/JJ	.	.	.	.	.
*Xrep	*	*	*	*	*
*Xtremolo	*	*	*	*	*
=107	=107	=107	=107	=107	=107
*	*^	*	*	*	*
!	!	!	!	!	!	!LO:DY:a
8r	(4ee/	[2e\	f	(4ee\	ży-	>
!	!	!	!LO:DY:a	!	!	!
8AA'/L	.	.	>	.	.	.
!LO:TX:b:i:t=legg.	!	!	!	!	!	!
8BB'/	8dd/L	.	.	8dd\L	.	.
8C#'/J	8cc#/J	.	.	8cc#\J)	.	]]
=108	=108	=108	=108	=108	=108	=108
!	!	!	!	!	!	!LO:DY:a
8D'\L	4b/)	2e\_	.	4b\	-wi	p
8E'\	.	.	.	.	.	.
8F#'\	4e/	.	]	4e/	i	.
8G#'\J	.	.	.	.	.	.
=109	=109	=109	=109	=109	=109	=109
8A'\L	4a/	(2e\]	.	(4a/	zdro-	.
!	!	!	!LO:DY:a	!	!	!
8c#'\	.	.	<	.	.	.
!	!	!	!	!	!	!LO:DY:a
8B'\	4cc#/	.	.	4cc#\)	.	<
8A'\J	.	.	.	.	.	.
*	*v	*v	*	*	*	*
=110	=110	=110	=110	=110	=110
8G#'\L	4b/ 4e/)	.	4b\	-wi	.
8F#'\	.	.	.	.	.
8E'\	(4e/	.	4e/	my	.
8D'\J	.	[	.	.	.
=111	=111	=111	=111	=111	=111
*	*^	*	*	*	*
!	!	!	!LO:DY:a	!	!	!
8C#'/L	4ee/	[2e\)	>	(4ee\	ży-	[
8AA'/	.	.	.	.	.	.
!	!	!	!	!	!	!LO:DY:a
8BB'/	8dd#X/L	.	.	8dd#X\L	.	>
8C#'/J	8cc#/J	.	.	8cc#\J)	.	.
=112	=112	=112	=112	=112	=112	=112
!	!	!	!	!	!	!LO:DY:a
8D#X'\L	4b/	4e\]	p ]	4b\	-wi	] p
8E'\	.	.	.	.	.	.
8F#'\	(((4e/	4ryy	.	4e/	i	.
8G#'\J	.	.	.	.	.	.
=113	=113	=113	=113	=113	=113	=113
!	!	!	!LO:DY:a	!	!	!LO:DY:a
8A'\L	4f#/	4e\)	>	(4f#/	zdro-	>
8c#'\	.	.	.	.	.	.
8B'\	4g#/	4d#X\	.	4g#/)	.	]]
8A'\J	.	.	]	.	.	.
*	*v	*v	*	*	*	*
!!LO:PB:g=original
=114	=114	=114	=114	=114	=114
!LO:TX:a:t=P:problem=mixed beam	!	!	!	!	!
8G#'\L	4e/))	.	4e/	-wi	.
8F#'\	.	.	.	.	.
8E'\	4r	.	4r	.	.
8EE'/J	.	.	.	.	.
=115	=115	=115	=115	=115	=115
*tremolo	*tremolo	*	*	*	*
!	!	!LO:DY:a	!	!	!
(16AA\LL	(<16c#\LL	pp	2r	.	.
16E\	16A\	.	.	.	.
16AA\	16c#\	.	.	.	.
16E\	16A\	.	.	.	.
16AA\	16c#\	.	.	.	.
16E\	16A\	.	.	.	.
16AA\	16c#\	.	.	.	.
16E\JJ	16A\JJ	.	.	.	.
=116	=116	=116	=116	=116	=116
*	*^	*	*	*	*
*rep	*	*	*	*	*	*
16AA\LL	[2e/	16c#\LL	.	2r	.	.
16E\	.	16A\	.	.	.	.
16AA\	.	16c#\	.	.	.	.
16E\	.	16A\	.	.	.	.
16AA\	.	16c#\	.	.	.	.
16E\	.	16A\	.	.	.	.
16AA\	.	16c#\	.	.	.	.
16E\JJ)	.	16A\JJ	.	.	.	.
*	*	*Xtremolo	*	*	*	*
*	*v	*v	*	*	*	*
*Xrep	*	*	*	*	*
=117	=117	=117	=117	=117	=117
*rep	*	*	*	*	*
16AA\LL	8e/]L 8c#/)	.	4r	.	.
16E\	.	.	.	.	.
16AA\	8f#'/	.	.	.	.
16E\	.	.	.	.	.
16AA\	8e'/	.	8r	.	.
16E\	.	.	.	.	.
!	!	!	!	!	!LO:DY:a
16AA\	8d'/J	.	8e/	Pod	p
16E\JJ	.	.	.	.	.
*Xrep	*	*	*	*	*
=118	=118	=118	=118	=118	=118
*rep	*	*	*	*	*
!	!	!	!LO:TX:a:i:t=legg.	!	!
16AA\LL	8c#'/L	<	(4a/	siat-	.
16E\	.	.	.	.	.
16AA\	8B'/	.	.	.	.
16E\	.	.	.	.	.
16AA\	8c#'/	.	4f#/)	.	.
16E\	.	.	.	.	.
16AA\	8d'/J	.	.	.	.
16E\JJ	.	.	.	.	.
*Xrep	*	*	*	*	*
=119	=119	=119	=119	=119	=119
*rep	*	*	*	*	*
16AA\LL	8e'/L	.	4.e/	-ką	.
16E\	.	.	.	.	.
16AA\	8f#'/	.	.	.	.
16E\	.	.	.	.	.
16AA\	8e'/	.	.	.	.
16E\	.	.	.	.	.
!	!	!	!	!	!LO:DY:a
16AA\	8d'/J	.	8e/	pio-	<
16E\JJ	.	.	.	.	.
*Xrep	*	*	*	*	*
=120	=120	=120	=120	=120	=120
*rep	*	*	*	*	*
16AA\LL	8c#'/L	.	4a/	-se-	.
16E\	.	.	.	.	.
16AA\	8d'/	.	.	.	.
16E\	.	.	.	.	.
16AA\	8c#'/	.	8e/	-nek	.
16E\	.	.	.	.	.
16AA\	8B'/J	.	8e/	pod	.
16E\JJ	.	.	.	.	.
*Xrep	*	*	*	*	*
=121	=121	=121	=121	=121	=121
*rep	*	*	*	*	*
16AA\LL	8A'/L	.	(>4f#/	siat-	.
16E\	.	.	.	.	.
16AA\	8G#'/	.	.	.	.
16E\	.	.	.	.	.
16AA\	8A'/	.	4g#/)	.	[
16E\	.	.	.	.	.
16AA\	8B'/J	.	.	.	.
16E\JJ	.	.	.	.	.
*Xrep	*	*	*	*	*
!!LO:LB:g=original
=122	=122	=122	=122	=122	=122
*rep	*	*	*	*	*
!	!	!	!	!	!LO:DY:a
16AA\LL	8c#'/L	.	4a\	-ką	<
16E\	.	.	.	.	.
!	!	!LO:DY:a	!	!	!
16AA\	8B'/	<	.	.	.
16E\	.	.	.	.	.
16AA\	8c#'/	.	4b\	pio-	.
16E\	.	.	.	.	.
16AA\	8d'/J	.	.	.	.
16E\JJ	.	.	.	.	.
*Xrep	*	*	*	*	*
=123	=123	=123	=123	=123	=123
*rep	*	*	*	*	*
16AA\LL	8e'/L	.	8cc#\L	-se-	.
16E\	.	.	.	.	.
16AA\	8d'/	.	8dd\J	.	.
16E\	.	.	.	.	.
16AA\	8c#'/	.	[4ee\	-nek	[[
16E\	.	.	.	.	.
16AA\	8d'/J	.	.	.	.
16E\JJ	.	.	.	.	.
*Xrep	*	*	*	*	*
=124	=124	=124	=124	=124	=124
*rep	*	*	*	*	*
16AA\LL	8e'/L	.	8ee\]	.	.
16E\	.	.	.	.	.
16AA\	8a'/	.	8r	.	.
16E\	.	.	.	.	.
!	!	!	!	!	!LO:DY:a
16AA\	8cc#'/	.	4ee\	My	f
16E\	.	[	.	.	.
16AA\	8ee'/J	.	.	.	.
16E\JJ	.	.	.	.	.
*Xrep	*	*	*	*	*
*Xtremolo	*	*	*	*	*
=125	=125	=125	=125	=125	=125
*	*^	*	*	*	*
*	*	*2\left	*	*	*	*
8r	4ffn/	(2fn\	f	(4ffn\	ży-	.
!	!	!	!LO:DY:a	!	!	!
8FFn'/L	.	.	>	.	.	.
!	!	!	!	!	!	!LO:DY:a
8AA'/	8ee/L	.	.	8ee\L	.	>
8Cn'/J	8dd/J	.	.	8dd\J)	.	.
=126	=126	=126	=126	=126	=126	=126
!	!	!	!	!	!	!LO:DY:a
8Fn'\L	4ccn/ 4f/)	4ryy	.	4ccn\	-wi	] p
8Gn'\	.	.	]	.	.	.
8A'\	(4fn/	[4fn\	.	4fn/	i	.
8d'\J	.	.	.	.	.	.
=127	=127	=127	=127	=127	=127	=127
!	!	!	!	!	!	!LO:DY:a
8c#'\L	4gn/	4f\]	.	(4gn/	zdro-	<
8B-X'\	.	.	.	.	.	.
8A'\	4b-X/	4e\	.	4b-X\)	.	.
8Gn'\J	.	.	.	.	.	.
*	*v	*v	*	*	*	*
=128	=128	=128	=128	=128	=128
8Fn'\L	4a/ 4fn/)	.	4a\	-wi	.
8E'\	.	.	.	.	.
8D'\	(>4ccn/ 4e/	.	4ccn\	my	[[
8Cn'\J	.	.	.	.	.
=129	=129	=129	=129	=129	=129
*	*^	*	*	*	*
!	!	!	!	!	!	!LO:DY:a
!	!	!	!	!	!	!LO:DY:a
8BB-X'\L	4dd/	4d\	.	(4ffn\	ży-	> f
8Cn'\	.	.	.	.	.	.
8D'\	4b-X/	[4gn\	.	8ee\L	.	.
8E'\J	.	.	.	8dd\J)	.	]
!!LO:LB:g=original
=130	=130	=130	=130	=130	=130	=130
8Fn'\L	2a/)	4g\]	.	4ccn\	-wi	.
8Gn'\	.	.	.	.	.	.
!	!	!	!	!	!	!LO:DY:a
8A'\	.	([4fn\	.	4fn/	i	p
8B-X'\J	.	.	.	.	.	.
=131	=131	=131	=131	=131	=131	=131
!	!	!	!	!LO:TX:a:i:t=riten.	!	!
8A'\L	4ccn/	2a\ 2f\]	.	(4ccn\	zdro-	.
8Fn'\	.	.	.	.	.	.
8E'\	4dd/	.	.	4dd\)	.	.
8D'\J	.	.	.	.	.	.
*	*v	*v	*	*	*	*
=132	=132	=132	=132	=132	=132
4C#X;/	4ee/ 4a/ 4e;/)	.	4ee;\	-wi	.
!	!	!	!LO:TX:a:i:t=a tempo animato	!	!
4r	4r	.	4a/	I	.
*clefG2	*	*	*	*	*
=133	=133	=133	=133	=133	=133
(4f#/	8r	.	(4a/	złe-	.
!	!LO:TX:b:i:t=a tempo	!	!	!	!
.	8a/	.	.	.	.
4fn/	8r	.	4dd\)	.	.
.	8dd\ 8a\	.	.	.	.
=134	=134	=134	=134	=134	=134
!	!	!LO:DY:a	!	!	!
4e/	8r	<	4cc#\	-go	.
.	8cc#\ 8a\	.	.	.	.
4d/)	8r	.	4b\	czło-	.
.	8b/ 8a/	.	.	.	.
*clefF4	*	*	*	*	*
=135	=135	=135	=135	=135	=135
*^	*	*	*	*	*
*	*	*	*	*2\left	*	*
(4c#/	(2E\	8r	[ [	2ee\	-wie-	.
.	.	8g#/ 8e/	.	.	.	.
4B/	.	8r	.	.	.	.
.	.	8g#/ 8d/	.	.	.	.
=136	=136	=136	=136	=136	=136	=136
2A/)	4A\)	8r	.	4a\	-ka	<
.	.	8a/ 8c#/	<	.	.	.
.	4rEE	8r	.	4a\	ta	.
.	.	8a/ 8c#/	.	.	.	.
=137	=137	=137	=137	=137	=137	=137
[2A/	(4F#\	8r	.	(4a\	siat-	.
.	.	8a/	.	.	.	.
.	4Fn\	8r	.	4dd\)	.	.
.	.	8dd\ 8a\	.	.	.	.
=138	=138	=138	=138	=138	=138	=138
4A/]	4E\	8r	.	4cc#\	-ka	.
.	.	8cc#\ 8a\	.	.	.	.
4d/	4D\)	8r	.	4ff#\	u-	.
.	.	8ff#\ 8a\	.	.	.	.
!!LO:LB:g=original
=139	=139	=139	=139	=139	=139	=139
*	*	*	*	*2\right	*	*
!	!	!	!	!	!	!LO:DY:a
(4c#/	[2E\	8r	f	[2ee\	-ło-	f
.	.	8ee\ 8a\	.	.	.	.
4f#/	.	8r	.	.	.	.
.	.	8a/	.	.	.	.
=140	=140	=140	=140	=140	=140	=140
4e/	2E\]	8r	.	2ee\]	.	.
.	.	8b/ 8a/	.	.	.	.
4d/)	.	8r	.	.	.	.
.	.	8b/ 8g#/	.	.	.	.
*v	*v	*	*	*	*	*
=141||	=141||	=141||	=141||	=141||	=141||
*k[]	*k[]	*	*k[]	*	*
*C:	*C:	*	*C:	*	*
*^	*^	*	*	*	*
!	!	!	!	!	!LO:TX:a:B:t=Tempo I	!	!
8e\ 8c\ 8A\ 8F#X\	4ryy	(16aa\LL	4ryy	f <	4a/	-wi.	.
.	.	16bb\	.	.	.	.	.
8rc	.	16aa\	.	.	.	.	.
.	.	16ccc\JJ	.	.	.	.	.
*clefG2	*	*	*	*	*	*	*
16cc/LL	(4f#X\	16aa/LL	(4ee\	.	4r	.	.
16b/	.	16bb/	.	.	.	.	.
16cc/	.	16aa/	.	.	.	.	.
16a/JJ	.	16ccc/JJ	.	.	.	.	.
=142	=142	=142	=142	=142	=142	=142	=142
16b/LL	[2e\)	16ee/LL	2dd\)	[	2r	.	.
16a/	.	16ffn/	.	>	.	.	.
16b/	.	16ee/	.	.	.	.	.
16g#X/JJ	.	16bb/JJ	.	.	.	.	.
16b/LL	.	16ee/LL	.	.	.	.	.
16a/	.	16ff/	.	.	.	.	.
16b/	.	16ee/	.	.	.	.	.
16g#/JJ	.	16bb/JJ)	.	.	.	.	.
=143	=143	=143	=143	=143	=143	=143	=143
4ryy	8e\]	(16a/LL	4ryy	.	2r	.	.
.	.	16b/	.	.	.	.	.
.	8rc	16a/	.	]	.	.	.
.	.	16cc#X/JJ	.	.	.	.	.
*clefF4	*	*	*	*	*	*	*
16c/LL	(4F#X\	16a/LL	(4e\	pp	.	.	.
16B/	.	16b/	.	<	.	.	.
16c/	.	16a/	.	.	.	.	.
16A/JJ	.	16cc#/JJ	.	.	.	.	.
=144	=144	=144	=144	=144	=144	=144	=144
*	*	*	*2\right	*	*	*	*
16B/LL	2E\)	16e/LL	2d\)	.	2r	.	.
16A/	.	16fn/	.	.	.	.	.
16B/	.	16e/	.	[ >	.	.	.
16G#X/JJ	.	16b/JJ	.	.	.	.	.
16B/LL	.	16e/LL	.	.	.	.	.
16A/	.	16f/	.	.	.	.	.
16B/	.	16e/	.	.	.	.	.
16G#/JJ	.	16b/JJ)	.	.	.	.	.
*v	*v	*	*	*	*	*	*
*	*v	*v	*	*	*	*
=145	=145	=145	=145	=145	=145
16E\LL	8r	]	2r	.	.
16F\	.	.	.	.	.
16E\	(16c/LL 16A/	pp	.	.	.
16AA\JJ	16a/JJ)	.	.	.	.
16E\LL	8r	.	.	.	.
16F\	.	.	.	.	.
16E\	(16d/LL 16B/	.	.	.	.
16AA\JJ	16a/JJ)	.	.	.	.
=146	=146	=146	=146	=146	=146
16E\LL	8r	.	2r	.	.
16F\	.	.	.	.	.
(16E\	(<16e/LL (<16c/	.	.	.	.
[<16AA\JJ	[>16a/JJ	.	.	.	.
4E/ 4AA/])	4a/] 4e/ 4c;/))	.	.	.	.
==	==	==	==	==	==
*-	*-	*-	*-	*-	*-
!!!system-decoration: [(s1,{s2,s3})]
!!!RDF**kern: > = above
!!!RDF**kern: < = below
!!!RDF**dynam: < = cresc
!!!ENC: Arkadiusz Malec
!!!END: 2022-02-15
!!!ENC: Leszek Kubiak
!!!END: 2022-02-16
